modules/feathericon/icons/disappointed.svg

<?xml version="1.0" encoding="UTF-8"?>
<svg width="14px" height="14px" viewBox="0 0 14 14" version="1.1" xmlns="http://www.w3.org/2000/svg" xmlns:xlink="http://www.w3.org/1999/xlink">
    <!-- Generator: sketchtool 48.1 (47250) - http://www.bohemiancoding.com/sketch -->
    <title>disappointed</title>
    <desc>Created with sketchtool.</desc>
    <defs></defs>
    <g id="people" stroke="none" stroke-width="1" fill="none" fill-rule="evenodd">
        <g id="disappointed" fill="#000000">
            <path d="M7,13 C10.3137085,13 13,10.3137085 13,7 C13,3.6862915 10.3137085,1 7,1 C3.6862915,1 1,3.6862915 1,7 C1,10.3137085 3.6862915,13 7,13 Z M7,14 C3.13400675,14 0,10.8659932 0,7 C0,3.13400675 3.13400675,0 7,0 C10.8659932,0 14,3.13400675 14,7 C14,10.8659932 10.8659932,14 7,14 Z M7,9 C4.99707031,9 4.99707031,11 4.99707031,11 L6,11 C6,11 6,10 7,10 C8,10 8,11 8,11 L8.99743652,11 C8.99743652,11 9.00292969,9 7,9 Z M9.93517802,5.64505934 C9.97706664,5.75536444 10,5.87500403 10,6 C10,6.55228475 9.55228475,7 9,7 C8.44771525,7 8,6.55228475 8,6 C8,5.64449973 8.18550502,5.33232648 8.46499647,5.15499882 L8,5 L8,4 L11,5 L11,6 L9.93517802,5.64505934 L9.93517802,5.64505934 Z M5.53500353,5.15499882 C5.81449498,5.33232648 6,5.64449973 6,6 C6,6.55228475 5.55228475,7 5,7 C4.44771525,7 4,6.55228475 4,6 C4,5.87500403 4.02293336,5.75536444 4.06482198,5.64505934 L3,6 L3,5 L6,4 L6,5 L5.53500353,5.15499882 L5.53500353,5.15499882 Z" id="Shape"></path>
        </g>
    </g>
</svg>

<svg width="14" height="14" xmlns="http://www.w3.org/2000/svg"><path d="M7 13A6 6 0 1 0 7 1a6 6 0 0 0 0 12zm0 1A7 7 0 1 1 7 0a7 7 0 0 1 0 14zm0-5c-2.003 0-2.003 2-2.003 2H6s0-1 1-1 1 1 1 1h.997S9.003 9 7 9zm2.935-3.355a1 1 0 1 1-1.47-.49L8 5V4l3 1v1l-1.065-.355zm-4.4-.49a1 1 0 1 1-1.47.49L3 6V5l3-1v1l-.465.155z" fill="#000" fill-rule="evenodd"/></svg>
